X:1
T:Title
%%score { ( 1 3 ) | 2 }
L:1/8
M:4/4
K:Ab
V:1 treble nm="Grand Piano"
V:3 treble 
V:2 bass 
V:1
 z4 z2[Q:1/4=96] [A,C]>[B,D] | [CE]>[_C=D] [=CE]>[CA] [Ec]>[EB] [FA]>[_DF] | %2
 [CE]<.[CA] z2 e<.a z2 | E<.B z2 d<.b z2 | [CE]<.[Ec] z2 e<.c' C>[B,D] | %5
 [CE]>[_C=D] [=CE]>[CA] [Ec]>[EB] [FA]>[_DF] | [CE]<.[CA] z2 e<.a z2 | %7
 [EG]>[EG] [EG]>[EG] [=DB]>[DA] [DG]>[DF] | E6 d>c | B4 z4 | A4 z4 | G4 z4 | A4 z4 | B4 z4 | %14
 A4 z4 | [DF]2 [DF]2 [FA]2 [FB]2 | [=Ec]6 d>c | B4 z4 | A4 z4 | z2 D>D E2 c>B | A4 z4 | B4 z4 | %22
 A4 z4 | [A,DF]2 [DFB]2 [CEA]2 [B,EG]2 |[M:3/4] [A,CEA]6 |] %25
V:2
 z4 z2 [A,,E,]>[A,,E,] | [A,,A,]>[A,,A,] [A,,A,]>[A,,A,] [A,,A,]>[C,A,] [D,A,]>[D,A,] | %2
 [A,,A,]<.[A,,A,] z2[K:treble] [Ac]<.[Ac] z2 | [E,G,D]<.[E,G,D] z2[K:treble] [EG]<.[EGB] z2 | %4
 [A,,A,]<.[A,,A,] z2[K:treble] [Ac]<.[Ae][K:bass] [A,,E,A,]>[A,,E,] | %5
 [A,,A,]>[A,,A,] [A,,A,]>[A,,A,] [A,,A,]>[C,A,] [D,A,]>[D,A,] | %6
 [A,,A,]<.[A,,A,] z2[K:treble] [Ac]<.[Ac] z2 | %7
 [B,,B,]>[B,,B,] [B,,B,]>[B,,B,] [B,,F,]>[B,,F,] [B,,B,]>[B,,A,] | [E,G,]6 z2 | %9
 [E,G,D]2 [E,G,]>[E,G,] [E,G,D]2 z2 | [A,,A,]2 [A,,A,]>[A,,A,] [A,,A,]2 z2 | %11
 [E,G,D]2 [E,G,]>[E,G,] [E,G,D]2 z2 | [A,,A,]2 [A,,A,]>[A,,A,] [A,,A,]2 z2 | %13
 [E,G,D]2 [E,G,]>[E,G,] [E,G,D]2 z2 | [A,,A,]2 [A,,A,]>[A,,A,] [A,,A,]2 [A,,A,]>[A,,A,] | %15
 [D,A,]2 [D,A,]2 [D,F,]2 [D,F,]2 | [C,G,]6 z2 | [E,G,D]2 [E,G,]>[E,G,] [E,G,D]2 z2 | %18
 [A,,A,]2 [A,,A,]>[A,,A,] [A,,A,]2 z2 | [E,G,D]2 [E,G,]>[E,G,] [E,G,D]2 z2 | %20
 [A,,A,]2 [A,,A,]>[A,,A,] [A,,A,]2 z2 | [E,G,D]2 [E,G,]>[E,G,] [E,G,D]2 z2 | %22
 [A,,A,]2 [A,,A,]>[A,,A,] [A,,A,]2 [A,,A,]>[A,,A,] | D,2 B,,2 E,2 E,2 |[M:3/4] A,,6 |] %25
V:3
 x8 | x8 | x8 | x8 | x8 | x8 | x8 | x8 | x8 | z2 D>D F>A G>B | C2 C>C [CE]2 B>A | z2 D>D E2 c>B | %12
 C2 C>C [CE]2 d>c | z2 D>D F>A G>B | C2 C>C [CE]2 [CA]>[CG] | x8 | x8 | z2 D>D F>A G>B | %18
 C2 C>C [CE]2 B>A | F4 z4 | C2 C>C [CE]2 d>c | z2 D>D F>A G>B | C2 C>C [CE]2 [CA]>[CG] | x8 | %24
[M:3/4] x6 |] %25

